icons/arrow-block-topright.svg

<svg width="24" height="24" viewBox="0 0 24 24" fill="none" xmlns="http://www.w3.org/2000/svg">
<path fill-rule="evenodd" clip-rule="evenodd" d="M18.0985 5.83561L8.19766 8.44584L10.6728 10.822L5.86187 15.6329L8.40121 18.1723L13.2012 13.3723L15.5044 15.6754L18.0985 5.83561ZM19.6109 5.98316C19.8394 5.42912 19.5845 4.91891 19.283 4.64255C18.9821 4.36676 18.5062 4.18359 18.0193 4.3053L6.9351 7.22744L6.8658 7.26209C6.55791 7.41603 6.34544 7.69497 6.29625 8.03934C6.254 8.33509 6.34363 8.59481 6.43039 8.76832L6.48834 8.88422L8.52962 10.8438L4.67088 14.7026C4.3984 14.9751 4.30121 15.3341 4.30121 15.6329C4.30121 15.9318 4.3984 16.2908 4.67088 16.5632L7.47088 19.3632C7.74336 19.6357 8.10235 19.7329 8.40121 19.7329C8.70007 19.7329 9.05906 19.6357 9.33154 19.3632L13.2012 15.4936L15.0118 17.3041C15.2765 17.6757 15.7233 17.7459 16.0447 17.6541C16.3431 17.5688 16.6863 17.2992 16.7431 16.861L19.6109 5.98316Z" fill="black"/>
</svg>

<svg xmlns="http://www.w3.org/2000/svg" fill="none" viewBox="0 0 24 24">
  <path fill="#000" fill-rule="evenodd" d="m18.099 5.836-9.901 2.61 2.475 2.376-4.811 4.81 2.54 2.54 4.8-4.8 2.302 2.303 2.595-9.84Zm1.512.147c.228-.554-.027-1.064-.328-1.34-.3-.276-.777-.46-1.264-.338L6.935 7.227l-.07.035c-.307.154-.52.433-.569.777-.042.296.048.556.134.73l.058.115 2.042 1.96-3.86 3.859a1.315 1.315 0 0 0-.369.93c0 .299.097.658.37.93l2.8 2.8c.272.273.631.37.93.37.3 0 .658-.097.93-.37l3.87-3.87 1.81 1.811c.266.372.712.442 1.034.35.298-.085.641-.355.698-.793l2.868-10.878Z" clip-rule="evenodd"/>
</svg>
